assets/icons/Location point.svg

<svg fill="none" height="18" viewBox="0 0 15 18" width="15" xmlns="http://www.w3.org/2000/svg"><path clip-rule="evenodd" d="m7.5 9.3384c-1.11737 0-2.02697-.91457-2.02697-2.03803s.9096-2.03802 2.02697-2.03802 2.02697.91456 2.02697 2.03802-.9096 2.03803-2.02697 2.03803zm0-5.09506c-1.67563 0-3.04045 1.37142-3.04045 3.05703 0 1.68562 1.36482 3.05703 3.04045 3.05703s3.0405-1.37141 3.0405-3.05703c0-1.68561-1.36487-3.05703-3.0405-3.05703zm4.5894 7.91176-4.5894 4.6144-4.5894-4.6144c-2.530332-2.54412-2.530332-6.68385 0-9.22799 1.26517-1.27291 2.92644-1.90895 4.5894-1.90895 1.66212 0 3.3242.63689 4.5894 1.90895 2.5303 2.54414 2.5303 6.68387 0 9.22799zm.717-9.94894c-2.9264-2.941547-7.6864-2.941547-10.61284 0-2.924747 2.94155-2.924747 7.72836 0 10.66994l4.94834 4.9744c.09882.1002.22888.1495.3581.1495s.25928-.0493.3581-.1495l4.9483-4.9744c2.9248-2.94158 2.9248-7.72839 0-10.66994z" fill="#626262" fill-rule="evenodd"/></svg>

<svg width="15" height="18" viewBox="0 0 15 18" fill="none" xmlns="http://www.w3.org/2000/svg">
<path fill-rule="evenodd" clip-rule="evenodd" d="M7.5 9.3384C6.38263 9.3384 5.47303 8.42383 5.47303 7.30037C5.47303 6.17691 6.38263 5.26235 7.5 5.26235C8.61737 5.26235 9.52697 6.17691 9.52697 7.30037C9.52697 8.42383 8.61737 9.3384 7.5 9.3384ZM7.5 4.24334C5.82437 4.24334 4.45955 5.61476 4.45955 7.30037C4.45955 8.98599 5.82437 10.3574 7.5 10.3574C9.17563 10.3574 10.5405 8.98599 10.5405 7.30037C10.5405 5.61476 9.17563 4.24334 7.5 4.24334ZM12.0894 12.1551L7.5 16.7695L2.9106 12.1551C0.380268 9.61098 0.380268 5.47125 2.9106 2.92711C4.17577 1.6542 5.83704 1.01816 7.5 1.01816C9.16212 1.01816 10.8242 1.65505 12.0894 2.92711C14.6197 5.47125 14.6197 9.61098 12.0894 12.1551ZM12.8064 2.20616C9.88 -0.735387 5.12 -0.735387 2.19356 2.20616C-0.731187 5.14771 -0.731187 9.93452 2.19356 12.8761L7.1419 17.8505C7.24072 17.9507 7.37078 18 7.5 18C7.62922 18 7.75928 17.9507 7.8581 17.8505L12.8064 12.8761C15.7312 9.93452 15.7312 5.14771 12.8064 2.20616Z" fill="#626262"/>
</svg>
